Obsidian-SemiLight/actions/24s/gtk-convert.svg

<svg viewBox="0 0 24 24" xmlns="http://www.w3.org/2000/svg"><path d="m12 4a7.9999981 8.000001 0 0 0 -7.7402344 6h1.0351563a7 7 0 0 1 6.7050781-5 7 7 0 0 1 6.308594 4h-3.609375v1h4.001953.998047v-.1132812-.8867188-4h-1v2.65625a7.9999981 8.000001 0 0 0 -6.699219-3.65625zm-7.6992188 10v.113281.886719 4h1v-2.65625a7.9999981 8.000001 0 0 0 6.6992188 3.65625 7.9999981 8.000001 0 0 0 7.740234-6h-1.035156a7 7 0 0 1 -6.705078 5 7 7 0 0 1 -6.3085938-4h3.609375v-1h-4-.0019531z" fill="#4d4d4d"/></svg>

<svg xmlns="http://www.w3.org/2000/svg" viewBox="0 0 24 24">
  <defs id="defs3051">
    <style type="text/css" id="current-color-scheme">
      .ColorScheme-Text {
        color:#4d4d4d;
      }
      </style>
  </defs>
 <path style="fill:currentColor;fill-opacity:1;stroke:none" 
     d="M 12 4 A 7.9999981 8.000001 0 0 0 4.2597656 10 L 5.2949219 10 A 7 7 0 0 1 12 5 A 7 7 0 0 1 18.308594 9 L 14.699219 9 L 14.699219 10 L 18.701172 10 L 19.699219 10 L 19.699219 9.8867188 L 19.699219 9 L 19.699219 5 L 18.699219 5 L 18.699219 7.65625 A 7.9999981 8.000001 0 0 0 12 4 z M 4.3007812 14 L 4.3007812 14.113281 L 4.3007812 15 L 4.3007812 19 L 5.3007812 19 L 5.3007812 16.34375 A 7.9999981 8.000001 0 0 0 12 20 A 7.9999981 8.000001 0 0 0 19.740234 14 L 18.705078 14 A 7 7 0 0 1 12 19 A 7 7 0 0 1 5.6914062 15 L 9.3007812 15 L 9.3007812 14 L 5.3007812 14 L 5.2988281 14 L 4.3007812 14 z "
     class="ColorScheme-Text"
     />
</svg>
